icons/numix/32x32/mimetypes/application-java.svg

<?xml version="1.0" encoding="UTF-8" standalone="no"?>
<svg
   xmlns:dc="http://purl.org/dc/elements/1.1/"
   xmlns:cc="http://creativecommons.org/ns#"
   xmlns:rdf="http://www.w3.org/1999/02/22-rdf-syntax-ns#"
   xmlns:svg="http://www.w3.org/2000/svg"
   xmlns="http://www.w3.org/2000/svg"
   xmlns:sodipodi="http://sodipodi.sourceforge.net/DTD/sodipodi-0.dtd"
   xmlns:inkscape="http://www.inkscape.org/namespaces/inkscape"
   width="32"
   height="32"
   viewBox="0 0 32 32"
   id="svg2"
   version="1.1"
   inkscape:version="0.48.5 r10040"
   sodipodi:docname="application-java.svg">
  <metadata
     id="metadata32">
    <rdf:RDF>
      <cc:Work
         rdf:about="">
        <dc:format>image/svg+xml</dc:format>
        <dc:type
           rdf:resource="http://purl.org/dc/dcmitype/StillImage" />
      </cc:Work>
    </rdf:RDF>
  </metadata>
  <defs
     id="defs30" />
  <sodipodi:namedview
     pagecolor="#ffffff"
     bordercolor="#666666"
     borderopacity="1"
     objecttolerance="10"
     gridtolerance="10"
     guidetolerance="10"
     inkscape:pageopacity="0"
     inkscape:pageshadow="2"
     inkscape:window-width="1280"
     inkscape:window-height="970"
     id="namedview28"
     showgrid="true"
     inkscape:zoom="10.429825"
     inkscape:cx="11.986465"
     inkscape:cy="10.028087"
     inkscape:window-x="0"
     inkscape:window-y="0"
     inkscape:window-maximized="1"
     inkscape:current-layer="svg2">
    <inkscape:grid
       type="xygrid"
       id="grid3020" />
  </sodipodi:namedview>
  <path
     style="fill:#e66f00;fill-opacity:1"
     d="M 5.3358884,2.97e-4 C 4.648414,3.12e-4 4,0.676788 4,1.3940317 L 4,30.606268 C 4,31.282757 4.687474,32 5.3358884,32 L 26.66322,32 c 0.648414,0 1.335888,-0.717243 1.335888,-1.393732 L 28,9.0000002 19,0 z"
     id="path4-1"
     inkscape:connector-curvature="0"
     sodipodi:nodetypes="ssssssccs" />
  <path
     style="fill:#000000;fill-opacity:0.19599998"
     d="M 21,9.0000002 28,16 28,9.0000002 z"
     id="path6-4"
     inkscape:connector-curvature="0"
     sodipodi:nodetypes="cccc" />
  <path
     style="fill:#ffffff;fill-opacity:0.39200003"
     d="m 19.000306,2.97e-4 8.991594,8.9997032 -7.613262,0 c -0.672951,0 -1.378332,-0.7134896 -1.378332,-1.3864402 z"
     id="path8-6"
     inkscape:connector-curvature="0"
     sodipodi:nodetypes="ccssc" />
  <g
     style="fill:#ffffff;fill-rule:evenodd"
     id="g10"
     transform="matrix(1.3019455,0,0,1.3019455,-4.831255,-4.0328379)">
    <path
       d="m 14.339844,19.945312 c 0,0 -0.484375,0.269532 0.34375,0.359376 1.003906,0.109374 1.515625,0.09375 2.621094,-0.105469 0,0 0.289062,0.171875 0.695312,0.320312 -2.476562,1.007813 -5.605469,-0.05859 -3.660156,-0.574219"
       id="path12"
       inkscape:connector-curvature="0" />
    <path
       d="m 14.035156,18.632812 c 0,0 -0.542968,0.382813 0.285156,0.460938 1.074219,0.105469 1.917969,0.113281 3.382813,-0.152344 0,0 0.203125,0.195313 0.519531,0.300782 -2.992187,0.832031 -6.332031,0.06641 -4.1875,-0.609376"
       id="path14"
       inkscape:connector-curvature="0" />
    <path
       d="m 16.589844,16.40625 c 0.609375,0.664062 -0.164063,1.265625 -0.164063,1.265625 0,0 1.550781,-0.761719 0.839844,-1.710937 -0.664063,-0.886719 -1.175781,-1.324219 1.585937,-2.84375 0,0 -4.332031,1.027343 -2.261718,3.289062"
       id="path16"
       inkscape:connector-curvature="0" />
    <path
       d="m 19.863281,20.917969 c 0,0 0.359375,0.28125 -0.394531,0.496093 -1.429688,0.410157 -5.949219,0.535157 -7.207031,0.01563 -0.449219,-0.183594 0.394531,-0.445313 0.664062,-0.496094 0.277344,-0.05859 0.433594,-0.04687 0.433594,-0.04687 -0.5,-0.335938 -3.246094,0.65625 -1.390625,0.941406 5.050781,0.777344 9.207031,-0.347656 7.894531,-0.910156"
       id="path18"
       inkscape:connector-curvature="0" />
    <path
       d="m 14.570312,17.273438 c 0,0 -2.300781,0.515624 -0.8125,0.703124 0.625,0.08203 1.875,0.0625 3.042969,-0.03125 0.949219,-0.07422 1.90625,-0.234374 1.90625,-0.234374 0,0 -0.335937,0.132812 -0.578125,0.292968 -2.335937,0.582032 -6.847656,0.308594 -5.550781,-0.285156 1.101563,-0.503906 1.992187,-0.445312 1.992187,-0.445312"
       id="path20"
       inkscape:connector-curvature="0" />
    <path
       d="m 18.695312,19.457031 c 2.375,-1.167969 1.277344,-2.292969 0.511719,-2.140625 -0.1875,0.03516 -0.269531,0.07031 -0.269531,0.07031 0,0 0.06641,-0.105469 0.203125,-0.148438 1.515625,-0.507812 2.679687,1.488281 -0.492187,2.28125 0,0 0.03906,-0.03125 0.04687,-0.0625"
       id="path22"
       inkscape:connector-curvature="0" />
    <path
       d="m 17.265625,10.667969 c 0,0 1.316406,1.246093 -1.246094,3.164062 -2.054687,1.539063 -0.46875,2.414063 0,3.417969 -1.199219,-1.027344 -2.082031,-1.929688 -1.492187,-2.769531 0.867187,-1.234375 3.269531,-1.832031 2.738281,-3.8125"
       id="path24"
       inkscape:connector-curvature="0" />
    <path
       d="m 14.804688,22.628906 c 2.277343,0.136719 5.777343,-0.07813 5.863281,-1.097656 0,0 -0.160157,0.386719 -1.886719,0.695312 -1.945312,0.34375 -4.34375,0.304688 -5.765625,0.08203 0,0 0.292969,0.230468 1.789063,0.320312"
       id="path26"
       inkscape:connector-curvature="0" />
  </g>
</svg>

<svg width="32" xmlns="http://www.w3.org/2000/svg" height="32" viewBox="0 0 32 32" xmlns:xlink="http://www.w3.org/1999/xlink">
<path style="fill:#e66f00" d="M 5.332031 0.667969 C 4.648438 0.667969 4 1.3125 4 2 L 4 30 C 4 30.648438 4.6875 31.332031 5.332031 31.332031 L 26.667969 31.332031 C 27.3125 31.332031 28 30.648438 28 30 L 28 9.332031 L 19.332031 0.667969 Z "/>
<path style="fill:#000;fill-opacity:.196" d="M 19.332031 8 L 19.375 8.042969 L 19.480469 8 Z M 20.667969 9.332031 L 28 16.667969 L 28 9.332031 Z "/>
<path style="fill:#fff;fill-opacity:.392" d="M 19.332031 0.667969 L 28 9.332031 L 20.667969 9.332031 C 20.019531 9.332031 19.332031 8.648438 19.332031 8 Z "/>
<g style="fill-rule:evenodd;fill:#fff">
<path d="M 14.339844 19.945312 C 14.339844 19.945312 13.855469 20.214844 14.683594 20.304688 C 15.6875 20.414062 16.199219 20.398438 17.304688 20.199219 C 17.304688 20.199219 17.59375 20.371094 18 20.519531 C 15.523438 21.527344 12.394531 20.460938 14.339844 19.945312 "/>
<path d="M 14.035156 18.632812 C 14.035156 18.632812 13.492188 19.015625 14.320312 19.09375 C 15.394531 19.199219 16.238281 19.207031 17.703125 18.941406 C 17.703125 18.941406 17.90625 19.136719 18.222656 19.242188 C 15.230469 20.074219 11.890625 19.308594 14.035156 18.632812 "/>
<path d="M 16.589844 16.40625 C 17.199219 17.070312 16.425781 17.671875 16.425781 17.671875 C 16.425781 17.671875 17.976562 16.910156 17.265625 15.960938 C 16.601562 15.074219 16.089844 14.636719 18.851562 13.117188 C 18.851562 13.117188 14.519531 14.144531 16.589844 16.40625 "/>
<path d="M 19.863281 20.917969 C 19.863281 20.917969 20.222656 21.199219 19.46875 21.414062 C 18.039062 21.824219 13.519531 21.949219 12.261719 21.429688 C 11.8125 21.246094 12.65625 20.984375 12.925781 20.933594 C 13.203125 20.875 13.359375 20.886719 13.359375 20.886719 C 12.859375 20.550781 10.113281 21.542969 11.96875 21.828125 C 17.019531 22.605469 21.175781 21.480469 19.863281 20.917969 "/>
<path d="M 14.570312 17.273438 C 14.570312 17.273438 12.269531 17.789062 13.757812 17.976562 C 14.382812 18.058594 15.632812 18.039062 16.800781 17.945312 C 17.75 17.871094 18.707031 17.710938 18.707031 17.710938 C 18.707031 17.710938 18.371094 17.84375 18.128906 18.003906 C 15.792969 18.585938 11.28125 18.3125 12.578125 17.71875 C 13.679688 17.214844 14.570312 17.273438 14.570312 17.273438 "/>
<path d="M 18.695312 19.457031 C 21.070312 18.289062 19.972656 17.164062 19.207031 17.316406 C 19.019531 17.351562 18.9375 17.386719 18.9375 17.386719 C 18.9375 17.386719 19.003906 17.28125 19.140625 17.238281 C 20.65625 16.730469 21.820312 18.726562 18.648438 19.519531 C 18.648438 19.519531 18.6875 19.488281 18.695312 19.457031 "/>
<path d="M 17.265625 10.667969 C 17.265625 10.667969 18.582031 11.914062 16.019531 13.832031 C 13.964844 15.371094 15.550781 16.246094 16.019531 17.25 C 14.820312 16.222656 13.9375 15.320312 14.527344 14.480469 C 15.394531 13.246094 17.796875 12.648438 17.265625 10.667969 "/>
<path d="M 14.804688 22.628906 C 17.082031 22.765625 20.582031 22.550781 20.667969 21.53125 C 20.667969 21.53125 20.507812 21.917969 18.78125 22.226562 C 16.835938 22.570312 14.4375 22.53125 13.015625 22.308594 C 13.015625 22.308594 13.308594 22.539062 14.804688 22.628906 "/>
</g>
</svg>
